tipitek/img/download-google.svg

<svg width="168" height="50" viewBox="0 0 168 50" fill="none" xmlns="http://www.w3.org/2000/svg">
<g clip-path="url(#clip0_971_3963)">
<path d="M161.778 0H6.22222C2.78578 0 0 2.78578 0 6.22222V43.5556C0 46.992 2.78578 49.7778 6.22222 49.7778H161.778C165.214 49.7778 168 46.992 168 43.5556V6.22222C168 2.78578 165.214 0 161.778 0Z" fill="black"/>
<path d="M161.778 0.995556C164.665 0.995556 167.004 3.33511 167.004 6.22222V43.5556C167.004 46.4427 164.665 48.7822 161.778 48.7822H6.22222C3.33511 48.7822 0.995556 46.4427 0.995556 43.5556V6.22222C0.995556 3.33511 3.33511 0.995556 6.22222 0.995556H161.778ZM161.778 0H6.22222C2.8 0 0 2.8 0 6.22222V43.5556C0 46.9778 2.8 49.7778 6.22222 49.7778H161.778C165.2 49.7778 168 46.9778 168 43.5556V6.22222C168 2.8 165.2 0 161.778 0Z" fill="#A6A6A6"/>
<path d="M59.0101 12.7431C59.0101 13.7884 58.699 14.6222 58.0767 15.232C57.3799 15.9662 56.4714 16.3395 55.339 16.3395C54.2065 16.3395 53.3354 15.9662 52.5887 15.2195C51.8421 14.4729 51.4688 13.5395 51.4688 12.4444C51.4688 11.3493 51.8421 10.416 52.5887 9.66931C53.3354 8.92264 54.2563 8.53687 55.339 8.53687C55.8865 8.53687 56.4092 8.63642 56.8945 8.82309C57.3799 9.0222 57.7781 9.29598 58.0892 9.64442L57.4048 10.3289C57.1808 10.0551 56.8821 9.83109 56.5087 9.68175C56.1479 9.51998 55.7496 9.44531 55.339 9.44531C54.5301 9.44531 53.8332 9.73153 53.2732 10.2915C52.7132 10.864 52.4394 11.5733 52.4394 12.432C52.4394 13.2906 52.7132 14 53.2732 14.5724C53.8332 15.1324 54.5176 15.4186 55.339 15.4186C56.0856 15.4186 56.6954 15.2071 57.1932 14.7964C57.691 14.3858 57.9772 13.8009 58.0519 13.0791H55.339V12.1831H58.9603C58.9976 12.3822 59.0101 12.5689 59.0101 12.7431Z" fill="white" stroke="white" stroke-width="0.2" stroke-miterlimit="10"/>
<path d="M64.7462 8.71106V9.63195H61.3488V11.9964H64.4102V12.8924H61.3488V15.2568H64.7462V16.1777H60.3906V8.71106H64.7462Z" fill="white" stroke="white" stroke-width="0.2" stroke-miterlimit="10"/>
<path d="M68.7911 9.63207V16.1778H67.8328V9.63207H65.7422V8.71118H70.8693V9.63207H68.7786H68.7911Z" fill="white" stroke="white" stroke-width="0.2" stroke-miterlimit="10"/>
<path d="M75.5481 16.1778H74.5898V8.71118H75.5481V16.1778Z" fill="white" stroke="white" stroke-width="0.2" stroke-miterlimit="10"/>
<path d="M79.8067 9.63195V16.1777H78.8485V9.63195H76.7578V8.71106H81.8849V9.63195H79.7943H79.8067Z" fill="white" stroke="white" stroke-width="0.2" stroke-miterlimit="10"/>
<path d="M92.6985 12.4444C92.6985 13.552 92.3251 14.4729 91.5909 15.2195C90.8443 15.9662 89.9358 16.3395 88.8532 16.3395C87.7705 16.3395 86.862 15.9662 86.1154 15.2195C85.3811 14.4729 85.0078 13.552 85.0078 12.4444C85.0078 11.3369 85.3811 10.416 86.1154 9.66931C86.8496 8.92264 87.758 8.53687 88.8532 8.53687C89.9483 8.53687 90.8443 8.9102 91.5909 9.66931C92.3251 10.416 92.6985 11.3369 92.6985 12.432V12.4444ZM86.0034 12.4444C86.0034 13.3031 86.2772 14.0249 86.8123 14.5849C87.3598 15.1449 88.0443 15.4311 88.8532 15.4311C89.662 15.4311 90.3465 15.1449 90.8816 14.5849C91.4291 14.0249 91.7029 13.3155 91.7029 12.4444C91.7029 11.5733 91.4291 10.864 90.8816 10.304C90.334 9.74398 89.662 9.45775 88.8532 9.45775C88.0443 9.45775 87.3598 9.74398 86.8123 10.304C86.2647 10.864 86.0034 11.5858 86.0034 12.4444Z" fill="white" stroke="white" stroke-width="0.2" stroke-miterlimit="10"/>
<path d="M95.0012 16.1777H94.043V8.71106H95.2127L98.8465 14.5226H98.8839L98.8465 13.0791V8.71106H99.8047V16.1777H98.8092L95.0136 10.0924H94.9763L95.0136 11.5359V16.1902L95.0012 16.1777Z" fill="white" stroke="white" stroke-width="0.2" stroke-miterlimit="10"/>
<path d="M84.7979 27.0667C81.8735 27.0667 79.4842 29.2942 79.4842 32.3555C79.4842 35.4169 81.8735 37.6444 84.7979 37.6444C87.7224 37.6444 90.1117 35.4044 90.1117 32.3555C90.1117 29.3067 87.7224 27.0667 84.7979 27.0667ZM84.7979 35.5662C83.1926 35.5662 81.8113 34.2471 81.8113 32.3555C81.8113 30.464 83.1926 29.1449 84.7979 29.1449C86.4033 29.1449 87.7846 30.4515 87.7846 32.3555C87.7846 34.2595 86.4033 35.5662 84.7979 35.5662ZM73.2122 27.0667C70.2877 27.0667 67.8984 29.2942 67.8984 32.3555C67.8984 35.4169 70.2877 37.6444 73.2122 37.6444C76.1366 37.6444 78.5259 35.4044 78.5259 32.3555C78.5259 29.3067 76.1366 27.0667 73.2122 27.0667ZM73.2122 35.5662C71.6068 35.5662 70.2255 34.2471 70.2255 32.3555C70.2255 30.464 71.6068 29.1449 73.2122 29.1449C74.8175 29.1449 76.1988 30.4515 76.1988 32.3555C76.1988 34.2595 74.8175 35.5662 73.2122 35.5662ZM59.4237 28.6844V30.9244H64.7997C64.6379 32.1813 64.2148 33.1147 63.5802 33.7493C62.7962 34.5333 61.5766 35.392 59.4362 35.392C56.1259 35.392 53.5375 32.7289 53.5375 29.4187C53.5375 26.1084 56.1259 23.4453 59.4362 23.4453C61.2157 23.4453 62.5224 24.1422 63.4806 25.0507L65.061 23.4702C63.717 22.1884 61.9375 21.2053 59.4237 21.2053C54.8939 21.2053 51.0859 24.8889 51.0859 29.4311C51.0859 33.9733 54.8939 37.6569 59.4237 37.6569C61.8753 37.6569 63.7171 36.8604 65.1606 35.3547C66.6415 33.8738 67.1019 31.7831 67.1019 30.1031C67.1019 29.5804 67.0646 29.0951 66.9775 28.6969H59.4237V28.6844ZM115.809 30.4267C115.374 29.2444 114.03 27.0542 111.28 27.0542C108.529 27.0542 106.29 29.1947 106.29 32.3431C106.29 35.3049 108.529 37.632 111.541 37.632C113.968 37.632 115.374 36.1511 115.946 35.2924L114.142 34.0853C113.545 34.9689 112.723 35.5538 111.541 35.5538C110.359 35.5538 109.513 35.0187 108.977 33.9484L116.058 31.024L115.822 30.4267H115.809ZM108.592 32.1938C108.529 30.1529 110.172 29.1075 111.354 29.1075C112.275 29.1075 113.059 29.568 113.321 30.2275L108.592 32.1938ZM102.842 37.3209H105.169V21.7653H102.842V37.3209ZM99.0344 28.2364H98.9597C98.437 27.6142 97.4415 27.0542 96.1722 27.0542C93.5215 27.0542 91.0948 29.3813 91.0948 32.368C91.0948 35.3547 93.5215 37.6444 96.1722 37.6444C97.4291 37.6444 98.437 37.0844 98.9597 36.4373H99.0344V37.1964C99.0344 39.2249 97.9517 40.3075 96.2095 40.3075C94.7908 40.3075 93.9073 39.2871 93.5464 38.4284L91.5179 39.2747C92.1028 40.6809 93.6459 42.3982 96.2095 42.3982C98.9348 42.3982 101.237 40.7929 101.237 36.8853V27.3778H99.0344V28.2364ZM96.3713 35.5538C94.7659 35.5538 93.4219 34.2098 93.4219 32.368C93.4219 30.5262 94.7659 29.1449 96.3713 29.1449C97.9766 29.1449 99.1962 30.5138 99.1962 32.368C99.1962 34.2222 97.9517 35.5538 96.3713 35.5538ZM126.711 21.7653H121.148V37.3209H123.475V31.4222H126.723C129.299 31.4222 131.826 29.5555 131.826 26.5938C131.826 23.632 129.299 21.7653 126.723 21.7653H126.711ZM126.773 29.2693H123.475V23.9307H126.773C128.515 23.9307 129.498 25.3742 129.498 26.5938C129.498 27.8133 128.515 29.2569 126.773 29.2569V29.2693ZM141.122 27.0293C139.442 27.0293 137.699 27.776 136.978 29.4062L139.043 30.2649C139.479 29.4062 140.3 29.12 141.159 29.12C142.354 29.12 143.585 29.8418 143.598 31.1235V31.2853C143.175 31.0489 142.279 30.688 141.171 30.688C138.944 30.688 136.691 31.9075 136.691 34.1849C136.691 36.2631 138.508 37.6071 140.549 37.6071C142.105 37.6071 142.976 36.9102 143.511 36.0889H143.585V37.2835H145.826V31.3227C145.826 28.56 143.76 27.0169 141.097 27.0169L141.122 27.0293ZM140.835 35.5538C140.076 35.5538 139.018 35.168 139.018 34.2347C139.018 33.04 140.337 32.5795 141.482 32.5795C142.503 32.5795 142.988 32.8035 143.598 33.1022C143.424 34.5458 142.179 35.5662 140.835 35.5662V35.5538ZM154.001 27.3653L151.338 34.1102H151.264L148.501 27.3653H146L150.144 36.7982L147.779 42.0373H150.206L156.59 27.3653H154.014H154.001ZM133.082 37.3209H135.409V21.7653H133.082V37.3209Z" fill="white"/>
<path d="M25.7846 24.1671L12.5312 38.2293C12.9419 39.76 14.3357 40.88 15.9908 40.88C16.6504 40.88 17.2726 40.7058 17.8077 40.3822L17.845 40.3573L32.7535 31.7582L25.7721 24.1547L25.7846 24.1671Z" fill="#EA4335"/>
<path d="M39.1857 21.7778H39.1733L32.7395 18.032L25.4844 24.4907L32.7644 31.7707L39.1733 28.0746C40.2933 27.4649 41.0524 26.2827 41.0524 24.9262C41.0524 23.5698 40.3057 22.3875 39.1857 21.7902V21.7778Z" fill="#FBBC04"/>
<path d="M12.5307 11.5485C12.456 11.8471 12.4062 12.1458 12.4062 12.4694V37.3209C12.4062 37.6445 12.4436 37.9431 12.5307 38.2418L26.232 24.5405L12.5307 11.5485Z" fill="#4285F4"/>
<path d="M25.8841 24.8889L32.741 18.032L17.845 9.3956C17.3099 9.07204 16.6753 8.88538 15.9908 8.88538C14.3357 8.88538 12.9419 10.0178 12.5312 11.536L25.8841 24.8765V24.8889Z" fill="#34A853"/>
</g>
<defs>
<clipPath id="clip0_971_3963">
<rect width="168" height="49.7778" fill="white"/>
</clipPath>
</defs>
</svg>

<svg width="168" height="50" fill="none" xmlns="http://www.w3.org/2000/svg"><g clip-path="url(#clip0_971_3963)"><path d="M161.778 0H6.222A6.222 6.222 0 0 0 0 6.222v37.334a6.222 6.222 0 0 0 6.222 6.222h155.556A6.222 6.222 0 0 0 168 43.556V6.222A6.222 6.222 0 0 0 161.778 0z" fill="#000"/><path d="M161.778.996a5.226 5.226 0 0 1 5.226 5.226v37.334a5.225 5.225 0 0 1-5.226 5.226H6.222a5.226 5.226 0 0 1-5.226-5.226V6.222A5.226 5.226 0 0 1 6.222.996h155.556zm0-.996H6.222C2.8 0 0 2.8 0 6.222v37.334c0 3.422 2.8 6.222 6.222 6.222h155.556c3.422 0 6.222-2.8 6.222-6.222V6.222C168 2.8 165.2 0 161.778 0z" fill="#A6A6A6"/><path d="M59.01 12.743c0 1.045-.311 1.88-.933 2.489-.697.734-1.606 1.108-2.738 1.108-1.133 0-2.004-.374-2.75-1.12-.747-.747-1.12-1.68-1.12-2.776 0-1.095.373-2.028 1.12-2.775.746-.746 1.667-1.132 2.75-1.132.547 0 1.07.1 1.556.286.485.2.883.473 1.194.821l-.684.685a2.195 2.195 0 0 0-.896-.647 2.85 2.85 0 0 0-1.17-.237c-.809 0-1.506.287-2.066.846-.56.573-.834 1.282-.834 2.141s.274 1.568.834 2.14c.56.56 1.245.847 2.066.847.747 0 1.356-.212 1.854-.623.498-.41.784-.995.859-1.717h-2.713v-.896h3.621c.038.2.05.386.05.56zM64.746 8.711v.92H61.35v2.365h3.061v.896H61.35v2.365h3.397v.92h-4.355V8.712h4.355zM68.791 9.632v6.546h-.958V9.632h-2.09v-.92h5.126v.92h-2.09.012zM75.548 16.178h-.958V8.71h.958v7.467zM79.807 9.632v6.546h-.959V9.632h-2.09v-.92h5.127v.92h-2.09.012zM92.698 12.444c0 1.108-.373 2.029-1.107 2.775-.747.747-1.655 1.12-2.738 1.12-1.082 0-1.991-.373-2.738-1.12-.734-.746-1.107-1.667-1.107-2.775 0-1.107.373-2.028 1.107-2.775.735-.746 1.643-1.132 2.738-1.132s1.991.373 2.738 1.132c.734.747 1.108 1.668 1.108 2.763v.012zm-6.695 0c0 .86.274 1.58.81 2.14.547.56 1.231.847 2.04.847.809 0 1.494-.286 2.029-.846.547-.56.82-1.27.82-2.14 0-.872-.273-1.581-.82-2.141-.548-.56-1.22-.846-2.029-.846-.809 0-1.493.286-2.04.846-.548.56-.81 1.282-.81 2.14zM95.001 16.178h-.958V8.71h1.17l3.634 5.812h.037l-.037-1.444V8.711h.958v7.467h-.996l-3.795-6.086h-.038l.038 1.444v4.654L95 16.178z" fill="#fff" stroke="#fff" stroke-width=".2" stroke-miterlimit="10"/><path d="M84.798 27.067c-2.924 0-5.314 2.227-5.314 5.288 0 3.062 2.39 5.29 5.314 5.29s5.314-2.24 5.314-5.29c0-3.048-2.39-5.288-5.314-5.288zm0 8.5c-1.605 0-2.987-1.32-2.987-3.212 0-1.891 1.382-3.21 2.987-3.21 1.605 0 2.987 1.306 2.987 3.21 0 1.905-1.382 3.211-2.987 3.211zm-11.586-8.5c-2.924 0-5.314 2.227-5.314 5.288 0 3.062 2.39 5.29 5.314 5.29 2.925 0 5.314-2.24 5.314-5.29 0-3.048-2.39-5.288-5.314-5.288zm0 8.5c-1.605 0-2.987-1.32-2.987-3.212 0-1.891 1.382-3.21 2.987-3.21 1.605 0 2.987 1.306 2.987 3.21 0 1.905-1.382 3.211-2.987 3.211zm-13.788-6.883v2.24H64.8c-.162 1.257-.585 2.19-1.22 2.825-.784.784-2.003 1.643-4.144 1.643-3.31 0-5.898-2.663-5.898-5.973s2.588-5.974 5.898-5.974c1.78 0 3.086.697 4.045 1.606l1.58-1.58c-1.344-1.283-3.124-2.266-5.637-2.266-4.53 0-8.338 3.684-8.338 8.226 0 4.542 3.808 8.226 8.338 8.226 2.451 0 4.293-.797 5.737-2.302 1.48-1.481 1.94-3.572 1.94-5.252 0-.523-.036-1.008-.123-1.406h-7.554v-.013zm56.385 1.743c-.435-1.183-1.779-3.373-4.529-3.373-2.751 0-4.99 2.14-4.99 5.29 0 2.96 2.239 5.288 5.251 5.288 2.427 0 3.833-1.48 4.405-2.34l-1.804-1.207c-.597.884-1.419 1.469-2.601 1.469s-2.028-.535-2.564-1.606l7.081-2.924-.236-.597h-.013zm-7.217 1.767c-.063-2.041 1.58-3.087 2.762-3.087.921 0 1.705.461 1.967 1.12l-4.729 1.967zm-5.75 5.127h2.327V21.765h-2.327v15.556zm-3.808-9.085h-.074c-.523-.622-1.518-1.182-2.788-1.182-2.65 0-5.077 2.327-5.077 5.314s2.427 5.276 5.077 5.276c1.257 0 2.265-.56 2.788-1.207h.074v.76c0 2.028-1.082 3.11-2.825 3.11-1.418 0-2.302-1.02-2.663-1.879l-2.028.847c.585 1.406 2.128 3.123 4.692 3.123 2.725 0 5.027-1.605 5.027-5.513v-9.507h-2.203v.858zm-2.663 7.318c-1.605 0-2.95-1.344-2.95-3.186 0-1.842 1.345-3.223 2.95-3.223 1.606 0 2.825 1.369 2.825 3.223 0 1.854-1.244 3.186-2.825 3.186zm30.34-13.789h-5.563v15.556h2.327v-5.899h3.248c2.576 0 5.103-1.867 5.103-4.828 0-2.962-2.527-4.829-5.103-4.829h-.012zm.062 7.504h-3.298v-5.338h3.298c1.742 0 2.725 1.443 2.725 2.663 0 1.22-.983 2.663-2.725 2.663v.012zm14.349-2.24c-1.68 0-3.423.747-4.144 2.377l2.065.859c.436-.859 1.257-1.145 2.116-1.145 1.195 0 2.426.722 2.439 2.003v.162c-.423-.236-1.319-.597-2.427-.597-2.227 0-4.48 1.22-4.48 3.497 0 2.078 1.817 3.422 3.858 3.422 1.556 0 2.427-.697 2.962-1.518h.074v1.194h2.241v-5.96c0-2.763-2.066-4.306-4.729-4.306l.025.012zm-.287 8.525c-.759 0-1.817-.386-1.817-1.32 0-1.194 1.319-1.654 2.464-1.654 1.021 0 1.506.224 2.116.522a2.809 2.809 0 0 1-2.763 2.464v-.012zm13.166-8.189l-2.663 6.745h-.074l-2.763-6.745H146l4.144 9.433-2.365 5.24h2.427l6.384-14.673h-2.589zm-20.919 9.956h2.327V21.765h-2.327v15.556z" fill="#fff"/><path d="M25.785 24.167L12.53 38.23a3.58 3.58 0 0 0 3.46 2.651c.66 0 1.282-.174 1.817-.498l.037-.025 14.909-8.599-6.982-7.603.013.012z" fill="#EA4335"/><path d="M39.186 21.778h-.013l-6.434-3.746-7.255 6.459 7.28 7.28 6.41-3.696a3.585 3.585 0 0 0 1.878-3.149 3.54 3.54 0 0 0-1.866-3.136v-.012z" fill="#FBBC04"/><path d="M12.53 11.549a3.734 3.734 0 0 0-.124.92v24.852c0 .324.038.622.125.92l13.701-13.7-13.701-12.992z" fill="#4285F4"/><path d="M25.884 24.889l6.857-6.857-14.896-8.636a3.595 3.595 0 0 0-5.314 2.14l13.353 13.34v.013z" fill="#34A853"/></g><defs><clipPath id="clip0_971_3963"><path fill="#fff" d="M0 0h168v49.778H0z"/></clipPath></defs></svg>
